X: 11963
T: End Of Story
R: reel
M: 4/4
K: Gdorian
|:dg{a}gf g3d|gfga e2c2-|cdfg d2B2-|Bceg f/e/d ec|
dg{a}gf g3d|gfga e2c2-|cdfg e/d/c fc|1 dgfa gbaf:|2 dgfa gbab||
|:c'2ag a3f|{a}gfga d3a|gfga c4-|cdcA cfab|
c'2ag a3f|{a}gfga d3a|aggf gaf2-|1 fdcA GFab:|2 fdcA GFdc||

